apps/scalable/photocollage.svg

<svg xmlns="http://www.w3.org/2000/svg" style="isolation:isolate" width="256" height="256"><defs><filter id="a" width="270.648" height="254.338" x="-7.32" y="2.95" filterUnits="userSpaceOnUse"><feGaussianBlur xmlns="http://www.w3.org/2000/svg" in="SourceGraphic" stdDeviation="4.294"/><feOffset xmlns="http://www.w3.org/2000/svg" dy="4" result="pf_100_offsetBlur"/><feFlood xmlns="http://www.w3.org/2000/svg" flood-opacity=".4"/><feComposite xmlns="http://www.w3.org/2000/svg" in2="pf_100_offsetBlur" operator="in" result="pf_100_dropShadow"/><feBlend xmlns="http://www.w3.org/2000/svg" in="SourceGraphic" in2="pf_100_dropShadow"/></filter></defs><g filter="url(#a)"><linearGradient id="b" x1=".233" x2=".933" y1="-.071" y2=".995" gradientTransform="matrix(244.648 0 0 228.338 5.676 11.947)" gradientUnits="userSpaceOnUse"><stop offset="0%" stop-color="#e8e8e8"/><stop offset="100%" stop-color="#f5f5f5"/></linearGradient><path fill="url(#b)" d="M165.685 11.947c74.055 0 84.639 10.557 84.639 84.544v59.251c0 73.986-10.584 84.543-84.639 84.543h-75.37c-74.055 0-84.639-10.557-84.639-84.543V96.491c0-73.987 10.584-84.544 84.639-84.544h75.37z"/></g><path fill="#C00AC2" d="M125 11.95H90.314c-9.257 0-17.521.164-24.898.598-3.688.216-7.155.499-10.412.863-3.257.364-6.305.807-9.156 1.344-2.852.536-5.507 1.165-7.979 1.9-2.472.735-4.761 1.578-6.879 2.537a39.612 39.612 0 0 0-5.855 3.246 33.29 33.29 0 0 0-4.91 4.039 33.261 33.261 0 0 0-4.043 4.905 39.5 39.5 0 0 0-3.252 5.847c-.961 2.116-1.803 4.402-2.539 6.871-.737 2.47-1.367 5.123-1.905 7.971-.537 2.849-.981 5.893-1.345 9.147a197.869 197.869 0 0 0-.866 10.4c-.209 3.561-.193 8.032-.289 12.019H125V11.95z"/><path fill="#E1BD30" d="M131 240.288h34.686c9.257 0 17.521-.165 24.898-.598 3.688-.216 7.155-.501 10.412-.865 3.257-.364 6.305-.805 9.156-1.342 2.852-.536 5.507-1.167 7.979-1.902 2.472-.735 4.761-1.576 6.879-2.535a39.619 39.619 0 0 0 5.855-3.248 33.279 33.279 0 0 0 4.91-4.037 33.261 33.261 0 0 0 4.043-4.905 39.5 39.5 0 0 0 3.252-5.847c.961-2.116 1.803-4.402 2.539-6.872.737-2.469 1.367-5.122 1.905-7.97.537-2.849.981-5.893 1.345-9.147.365-3.253.649-6.715.866-10.4.18-3.061.155-6.957.25-10.332H131v70z"/><path fill="#FF498A" d="M5.842 89.639c-.027 2.4-.166 4.306-.166 6.854v59.252c0 9.248.165 17.506.599 24.875.217 3.685.501 7.147.866 10.4.364 3.254.808 6.298 1.345 9.147.538 2.848 1.168 5.501 1.905 7.97.736 2.47 1.578 4.756 2.539 6.872a39.5 39.5 0 0 0 3.252 5.847 33.261 33.261 0 0 0 4.043 4.905 33.279 33.279 0 0 0 4.91 4.037 39.619 39.619 0 0 0 5.855 3.248c2.118.959 4.407 1.8 6.879 2.535 2.472.735 5.127 1.366 7.979 1.902 2.851.537 5.899.978 9.156 1.342 3.257.364 6.724.649 10.412.865 7.377.433 15.641.598 24.898.598H125V89.639H5.842z"/><path fill="#21AF2B" d="M250.119 164.286c.043-2.946.205-5.366.205-8.541V96.493c0-9.248-.165-17.506-.599-24.875a197.869 197.869 0 0 0-.866-10.4c-.364-3.254-.808-6.298-1.345-9.147-.538-2.848-1.168-5.501-1.905-7.971-.736-2.469-1.578-4.755-2.539-6.871a39.5 39.5 0 0 0-3.252-5.847 33.261 33.261 0 0 0-4.043-4.905 33.29 33.29 0 0 0-4.91-4.039 39.612 39.612 0 0 0-5.855-3.246c-2.118-.959-4.407-1.802-6.879-2.537-2.472-.735-5.127-1.364-7.979-1.9-2.851-.537-5.899-.98-9.156-1.344a198.576 198.576 0 0 0-10.412-.863c-7.377-.434-15.641-.598-24.898-.598H131v152.336h119.119z"/><g opacity=".4"><linearGradient id="c" x1=".517" x2=".517" y2="1"><stop offset="0%" stop-color="#fff"/><stop offset="12.5%" stop-opacity=".098" stop-color="#fff"/><stop offset="92.5%" stop-opacity=".098"/><stop offset="100%" stop-opacity=".498"/></linearGradient><path fill="none" stroke="url(#c)" stroke-linecap="round" stroke-linejoin="round" stroke-width="4.077" d="M165.685 11.947c74.055 0 84.639 10.557 84.639 84.544v59.251c0 73.986-10.584 84.543-84.639 84.543h-75.37c-74.055 0-84.639-10.557-84.639-84.543V96.491c0-73.987 10.584-84.544 84.639-84.544h75.37z" vector-effect="non-scaling-stroke"/></g><g opacity=".1"><path fill="#FFF" d="M5.676 126.116v29.626c0 73.986 10.584 84.543 84.639 84.543h75.37c74.055 0 84.639-10.557 84.639-84.543v-29.626H5.676z"/></g></svg>

<svg xmlns="http://www.w3.org/2000/svg" style="isolation:isolate" width="256" height="256" viewBox="0 0 256 256">
 <defs>
  <filter id="bjQ29vjtzxbh5LYZJpOdYECn0xwn4s51" width="270.648" height="254.338" x="-7.32" y="2.95" filterUnits="userSpaceOnUse">
   <feGaussianBlur xmlns="http://www.w3.org/2000/svg" in="SourceGraphic" stdDeviation="4.294"/>
   <feOffset xmlns="http://www.w3.org/2000/svg" dx="0" dy="4" result="pf_100_offsetBlur"/>
   <feFlood xmlns="http://www.w3.org/2000/svg" flood-opacity=".4"/>
   <feComposite xmlns="http://www.w3.org/2000/svg" in2="pf_100_offsetBlur" operator="in" result="pf_100_dropShadow"/>
   <feBlend xmlns="http://www.w3.org/2000/svg" in="SourceGraphic" in2="pf_100_dropShadow" mode="normal"/>
  </filter>
 </defs>
 <g filter="url(#bjQ29vjtzxbh5LYZJpOdYECn0xwn4s51)">
  <linearGradient id="_lgradient_53" x1=".233" x2=".933" y1="-.071" y2=".995" gradientTransform="matrix(244.648,0,0,228.338,5.676,11.947)" gradientUnits="userSpaceOnUse">
   <stop offset="0%" style="stop-color:rgb(232,232,232)"/>
   <stop offset="100%" style="stop-color:rgb(245,245,245)"/>
  </linearGradient>
  <path fill="url(#_lgradient_53)" d="M 165.685 11.947 C 239.74 11.947 250.324 22.504 250.324 96.491 L 250.324 155.742 C 250.324 229.728 239.74 240.285 165.685 240.285 L 90.315 240.285 C 16.26 240.285 5.676 229.728 5.676 155.742 L 5.676 96.491 C 5.676 22.504 16.26 11.947 90.315 11.947 L 165.685 11.947 Z"/>
 </g>
 <g>
  <path fill="#C00AC2" d="M 125 11.95 L 90.314 11.95 C 81.057 11.95 72.793 12.114 65.416 12.548 C 61.728 12.764 58.261 13.047 55.004 13.411 C 51.747 13.775 48.699 14.218 45.848 14.755 C 42.996 15.291 40.341 15.92 37.869 16.655 C 35.397 17.39 33.108 18.233 30.99 19.192 C 28.872 20.152 26.925 21.228 25.135 22.438 C 23.345 23.648 21.712 24.991 20.225 26.477 C 18.737 27.963 17.393 29.594 16.182 31.382 C 14.97 33.17 13.891 35.114 12.93 37.229 C 11.969 39.345 11.127 41.631 10.391 44.1 C 9.654 46.57 9.024 49.223 8.486 52.071 C 7.949 54.92 7.505 57.964 7.141 61.218 C 6.776 64.471 6.492 67.933 6.275 71.618 C 6.066 75.179 6.082 79.65 5.986 83.637 L 125 83.637 L 125 11.95 Z"/>
  <path fill="#E1BD30" d="M 131 240.288 L 165.686 240.288 C 174.943 240.288 183.207 240.123 190.584 239.69 C 194.272 239.474 197.739 239.189 200.996 238.825 C 204.253 238.461 207.301 238.02 210.152 237.483 C 213.004 236.947 215.659 236.316 218.131 235.581 C 220.603 234.846 222.892 234.005 225.01 233.046 C 227.128 232.086 229.075 231.008 230.865 229.798 C 232.655 228.588 234.288 227.247 235.775 225.761 C 237.263 224.275 238.607 222.644 239.818 220.856 C 241.03 219.068 242.109 217.124 243.07 215.009 C 244.031 212.893 244.873 210.607 245.609 208.137 C 246.346 205.668 246.976 203.015 247.514 200.167 C 248.051 197.318 248.495 194.274 248.859 191.02 C 249.224 187.767 249.508 184.305 249.725 180.62 C 249.905 177.559 249.88 173.663 249.975 170.288 L 131 170.288 L 131 240.288 Z"/>
  <path fill="#FF498A" d="M 5.842 89.639 C 5.815 92.039 5.676 93.945 5.676 96.493 L 5.676 155.745 C 5.676 164.993 5.841 173.251 6.275 180.62 C 6.492 184.305 6.776 187.767 7.141 191.02 C 7.505 194.274 7.949 197.318 8.486 200.167 C 9.024 203.015 9.654 205.668 10.391 208.137 C 11.127 210.607 11.969 212.893 12.93 215.009 C 13.891 217.124 14.97 219.068 16.182 220.856 C 17.393 222.644 18.737 224.275 20.225 225.761 C 21.712 227.247 23.345 228.588 25.135 229.798 C 26.925 231.008 28.872 232.086 30.99 233.046 C 33.108 234.005 35.397 234.846 37.869 235.581 C 40.341 236.316 42.996 236.947 45.848 237.483 C 48.699 238.02 51.747 238.461 55.004 238.825 C 58.261 239.189 61.728 239.474 65.416 239.69 C 72.793 240.123 81.057 240.288 90.314 240.288 L 125 240.288 L 125 89.639 L 5.842 89.639 Z"/>
  <path fill="#21AF2B" d="M 250.119 164.286 C 250.162 161.34 250.324 158.92 250.324 155.745 L 250.324 96.493 C 250.324 87.245 250.159 78.987 249.725 71.618 C 249.508 67.933 249.224 64.471 248.859 61.218 C 248.495 57.964 248.051 54.92 247.514 52.071 C 246.976 49.223 246.346 46.57 245.609 44.1 C 244.873 41.631 244.031 39.345 243.07 37.229 C 242.109 35.114 241.03 33.17 239.818 31.382 C 238.607 29.594 237.263 27.963 235.775 26.477 C 234.288 24.991 232.655 23.648 230.865 22.438 C 229.075 21.228 227.128 20.152 225.01 19.192 C 222.892 18.233 220.603 17.39 218.131 16.655 C 215.659 15.92 213.004 15.291 210.152 14.755 C 207.301 14.218 204.253 13.775 200.996 13.411 C 197.739 13.047 194.272 12.764 190.584 12.548 C 183.207 12.114 174.943 11.95 165.686 11.95 L 131 11.95 L 131 164.286 L 250.119 164.286 Z"/>
 </g>
 <g opacity=".4">
  <linearGradient id="_lgradient_54" x1=".517" x2=".517" y1="0" y2="1">
   <stop offset="0%" style="stop-color:rgb(255,255,255)"/>
   <stop offset="12.5%" stop-opacity=".098" style="stop-color:rgb(255,255,255)"/>
   <stop offset="92.5%" stop-opacity=".098" style="stop-color:rgb(0,0,0)"/>
   <stop offset="100%" stop-opacity=".498" style="stop-color:rgb(0,0,0)"/>
  </linearGradient>
  <path fill="none" stroke="url(#_lgradient_54)" stroke-linecap="round" stroke-linejoin="round" stroke-width="4.077" d="M 165.685 11.947 C 239.74 11.947 250.324 22.504 250.324 96.491 L 250.324 155.742 C 250.324 229.728 239.74 240.285 165.685 240.285 L 90.315 240.285 C 16.26 240.285 5.676 229.728 5.676 155.742 L 5.676 96.491 C 5.676 22.504 16.26 11.947 90.315 11.947 L 165.685 11.947 Z" vector-effect="non-scaling-stroke"/>
 </g>
 <g opacity=".1">
  <path fill="#FFFFFF" d="M 5.676 126.116 L 5.676 155.742 C 5.676 229.728 16.26 240.285 90.315 240.285 L 165.685 240.285 C 239.74 240.285 250.324 229.728 250.324 155.742 L 250.324 126.116 L 5.676 126.116 Z"/>
 </g>
</svg>
